X:1
T:Senex puerum portabat
T:William Byrd (c.1540-1623)
T:Senex puerum portabat
T:© Choral Public Domain Library 2010
T:© Choral Public Domain Library 2010
T:© Choral Public Domain Library 2010
T:© Choral Public Domain Library 2010
C:William Byrd (c.1540-1623)
Z:© Choral Public Domain Library 2010
%%score [ 1 2 3 4 ]
L:1/8
M:4/4
K:F
V:1 treble nm="Alto" snm="S."
V:2 treble-8 transpose=-12 nm="Tenor" snm="T."
V:3 treble-8 transpose=-12 nm="Tenor" snm="T."
V:4 bass nm="Bass" snm="B."
V:1
 [Cd]2 |[M:4/2] A6 G2 F6 E2 | D4 B6 B2 A4- | A4 G4 c6 B2 | c2 A2 c4 B4 A4- | A4 G4 A8 | %6
w: |Se- * * *|nex pu- e- rum|_ por- ta- *||* * bat,|
 z4 B6 B2 A4 | D4 d8 ^c2 =B2 | ^c8 c4 c4 | d8 A8 | z4 c8 G4 | B4 A6 G2 E2 F2 | G2 F2 F2 ED E8 | %13
w: pu- e- rum|por- ta- * *|bat, pu- er|au- tem|se- nem|re- ge- * * *||
 ^F8 z4 A4 | G4 A4 B6 c2 | A8 z8 | F8 A4 c4- | c4 G4 B4 A4 | G4 F6 ED E4 | F8 z8 | z16 | z16 | %22
w: bat, quem|Vir- go pe- pe-|rit,|et post par-|* tum Vir- go|per- man- * * *|sit:|||
 c6 B2 c2 d2 c4- | c4 A4 z8 | c6 B2 c2 d2 c4- | c4 A4 z4 G4 | c6 B2 A6 G2 | F16 | z4 D4 G6 F2 | %29
w: i- * * * *|* psum,|i- * * * *|* psum, quem|ge- * * nu-|it,|quem ge- *|
 E6 D2 C8 | z8 | z8 E4 E4 | F2 G2 A6 GF E2 D2 | C8 z8 | G6 A2 B2 c2 d4- | d2 cB A2 G2 F4 G4 | %36
w: * nu- it,||a- do-|ra- * * * * * *|vit,|a- do- ra- * *||
 A8 z4 A4- | A2 B2 c6 BA G2 F2 | E2 F2 G2 A2 B8 | A16 | !fermata!A16 |] %41
w: vit, a-|* do- ra- * * * *|||vit.|
V:2
 [Fa]2 |[M:4/2] z16 | z8 d6 c2 | B8 A4 f4- | f2 f2 e4 d4 f4- | f2 e2 f2 d2 f4 e4 | f4 g8 c4 | %7
w: ||Se- *|* nex pu-|* e- rum por- ta-|* * * * * bat,|por- ta- bat,|
 z4 d4 a6 gf | e2 d2 e2 f2 e8 | d4 d4 f8 | c8 e8 | d4 A4 c6 A2 | B2 c2 d8 ^c4 | d8 z4 f4 | %14
w: por- ta- * *|* * * * bat,|pu- er au-|tem se-|nem re- ge- *||bat, quem|
 e4 f4 d6 e2 | f8 c8 | d4 f8 c4 | f4 e4 d4 c4 | B2 c2 A4 G8 | z4 c4 e4 f4- | f4 c4 f6 e2 | %21
w: Vir- go pe- pe-|rit, et|post par- tum|Vir- go per- man-|* * * sit:|et post par-|* tum Vir- go|
 d4 c4 B8 | A8 f6 e2 | f2 g2 f8 c4 | z8 f6 e2 | f2 g2 f8 e4 | z4 c4 f6 e2 | d4 d4 c4 A4 | %28
w: per- man- *|sit: i- *|* * * psum,|i- *|* * * psum,|quem ge- *|* nu- it, quem|
 f6 d2 e6 d2 | c8 e4 e4 | f2 g2 a4- | a2 gf e2 d2 c8 | z8 F4 G4 | A2 B2 c6 =BA B4 | c8 d6 e2 | %35
w: ge- * * nu-|it, a- do-|ra- * *|* * * * * vit,|a- do-|ra- * * * * *|vit, a- do-|
 f2 g2 a6 gf e2 d2 | e2 f2 e2 d2 ^c8 | z8 e6 f2 | g6 f2 e2 d2 e4- | e2 d2 d8 ^c4 | !fermata!d16 |] %41
w: ra- * * * * * *|* * * * vit,|a- do-|ra- * * * *||vit.|
V:3
 [Dg]2 |[M:4/2] z16 | z16 | z16 | A6 G2 F6 E2 | D4 d6 d2 c4 | F4 B2 c2 d2 e2 f4- | %7
w: ||||Se- * * *|nex pu- e- rum|por- ta- * * * *|
 f2 e2 f2 d2 f4 e4 | z4 A8 A4 | B8 F4 A4- | A4 A4 c8 | F8 A8 | D4 D4 A8 | A16 | z16 | z4 A4 G4 A4 | %16
w: * * * * * bat,|pu- er|au- tem, pu-|* er au-|tem se-|nem re- ge-|bat,||quem Vir- go|
 B6 c2 A8 | z16 | z4 F4 B4 c4- | c4 F4 c4 B4 | A6 G2 A2 B2 A4 | D4 E2 F4 ED E4 | F8 z8 | z8 A6 G2 | %24
w: pe- pe- rit,||et post par-|* tum Vir- go|per- man- * * sit,|per- man- * * * *|sit:|i- *|
 A2 B2 A8 G4 | z4 F4 c6 B2 | A6 G2 F4 D4 | B6 AG A2 B2 c4- | c4 =B4 c8 | G4 c6 B2 A4- | A2 G2 F4 | %31
w: * * * psum,|quem ge- *|* nu- it, quem|ge- * * * * *|* nu- it,|quem ge- * *|* nu- it,|
 z4 A8 c4 | d2 e2 f6 ed c2 B2 | A8 c6 d2 | e2 f2 g6 fe f2 e2 | d4 c4 A6 B2 | c6 B2 A2 GF E2 D2 | %37
w: a- do-|ra- * * * * * *|vit, a- do-|ra- * * * * * *|* vit, a- do-|ra- * * * * * *|
 E4 A4 G4 z4 | E6 F2 G8- | G4 F4 E8 | !fermata!^F16 |] %41
w: * * vit,|a- do- ra-||vit.|
V:4
 [G,,C]2 |[M:4/2] z16 | z16 | z16 | z8 D,6 C,2 | B,,8 A,,4 A,4- | A,2 A,2 G,8 F,4 | B,8 A,8- | %8
w: ||||Se- *|* nex pu-|* e- rum por-|ta- bat,|
 A,8 z8 | z4 D,8 D,4 | F,8 C,8 | D,8 A,,4 C,4 | B,,8 A,,8 | D,16 | z16 | z4 F,4 E,4 F,4 | %16
w: _|pu- er|au- tem|se- nem re-|ge- *|bat,||quem Vir- go|
 D,6 E,2 F,8 | z16 | z8 z4 C,4 | F,4 A,8 D,4 | F,6 E,2 D,4 C,4 | B,,4 A,,4 G,,8 | z16 | %23
w: pe- pe- rit,||et|post par- tum|Vir- go per- man-|* * sit:||
 z8 F,6 E,2 | F,2 G,2 F,8 C,4 | z8 C,4 C4- | C2 B,2 A,6 G,2 F,4 | z4 B,,4 F,6 E,2 | D,4 D,4 C,8- | %29
w: i- *|* * * psum,|quem ge-|* * * nu- it,|quem ge- *|* nu- it,|
 C,8 z8 | D,4 D,4 | A,2 B,2 C6 B,2 A,2 G,2 | F,8 D,4 E,4 | F,2 G,2 A,6 G,F, E,2 D,2 | %34
w: _|a- do-|ra- * * * * *|vit, a- do-|ra- * * * * * *|
 C,8 B,,6 C,2 | D,2 E,2 F,6 E,D, C,2 B,,2 | A,,16 | A,,6 B,,2 C,8- | C,4 B,,2 A,,2 G,,8 | A,,16 | %40
w: vit, a- do-|ra- * * * * * *|vit,|a- do- ra-|||
 !fermata!D,16 |] %41
w: vit.|

